X: 76
T:Da Ne
R:Jig
C:Trad. Shetland
S:Aly Bain
M:6/8
L:1/8
Q:3/8=120
K:Am
|e2a aea|aea b2a|e2^f g2g|gag ^f2d|
e2a aea|aea b2a|g2e edB|A3 A3:|
e^fe edB|A2B c3|B2G B2G|Bcd E3|
e^fe edB|A2B c2d|e^fe dBG|A3 A3:|
